!!!OTL: Die Pfeife.
!!!OTL-incipit: WAS KUEMMERT MICH DIE GANZE WELT
!!!COM: J. Beer
!!!ARE: Europa, Mitteleuropa, Deutschland
!!!SCT: F0796
!!!TXL: @@DE
!!!YEM: Copyright 1995, estate of Helmut Schaffrath.
**kern	**text
*ICvox	*
*clefG2	*
*M2/4	*
*k[b-e-a-]	*
*E-:	*
!LO:TX:a:t=Heiter und ſcherʒhaft.	!
!LO:TX:a:t=P:only the highest voice encoded:problem	!
{16e-L	Was
16gJ	.
=1	=1
8b-	kümmert
8cc	.
8b-	mich
(16e-L	die
16gJ)	.
=2	=2
8b-	gan-
8cc	-ʒe
8b-	Welt,
16r}	.
{16b-	wenn
=3	=3
8an	mir
8a-	mein
8g	Pfeiſchen
8b-	.
=4	=4
4f	winkt
8r}	.
{16e-L	und
16gJ	.
=5	=5
8b-	Gerſten-
8cc	.
8b-	-ſaft,
16e-L	der
16gJ	.
=6	=6
8b-	mir
8cc	ge-
8b-}	-fällt,
{8ee-	an
=7	=7
8ee-	mei-
16ddL	-ner
16ccJ	.
8dd	Lip-
8bn	-pe
=8	=8
(8cc	blinkt,
4g)}	.
{8ee-	an
=9	=9
16ee-qq	.
8dd	mei-
(16ccL	-ner
16b-J)	.
8cc	Lip-
8an	-pe
=10	=10
4b-	blinkt;
8r}	.
{8B-	was
=11	=11
8B-	würd'
8B-	aus
8B-	man-
8B-	-chem
=12	=12
8B-	Er-
8g	-den-
8f}	-ſohn,
{16gL	wenn
16fJ	.
=13	=13
8e-	nicht
(16gL	die
16fJ	.
8e-)	Pfei-
16dL	-fe
16cJ	.
=14	=14
4g;	wär',
8r}	.
{8ee-	ich
=15	=15
8dd	gäb'
8cc	ſie
8b-	nicht
(16gL	um
16a-J)	.
=16	=16
8b-	ei-
8a-	-nen
8g}	Thron
{8b-	und
=17	=17
8b-/	darbt'
8a-	ich
8g	noch
8f	ſo
=18	=18
(8gL	ſehr,
8an	.
8b-J)}	.
{8cc	und
=19	=19
8b-	darbt'
8g	ich
8a-X	noch
8f	ſo
=20	=20
4e-	ſehr.
8r}	.
==	==
!!!AGN: Geselligkeits - Lied, Scherz
!!!ONB: ESAC (Essen Associative Code) Database: FINK
!!!AMT: simple duple
!!!AIN: vox
!!!EED: Helmut Schaffrath
!!!EEV: 1.0
!!!RDF**kern: > = above
!!!GTL: Liedertafel- und Gesellschaftslieder
!!!source: Musikalischer Hausschatz der Deutschen. Eine Sammlung von über 1000 Liedern und Gesängen mit Singstimmen und Klavierbegleitung. Leipzig, Litterarisches Verlags-Haus.
!!!page: 550
!!!URL-scan: https://www.digitale-sammlungen.de/en/view/bsb11144622?page=500
!!!ENC: Anna Maria Matuszewska
!!!EEV: 2024/08/06
*-	*-